icons/arrow/arrow-left-curve.svg

<svg width="14" height="14" viewBox="0 0 14 14" fill="none" xmlns="http://www.w3.org/2000/svg">
<path d="M3.5 5H7.33772C8.62901 5 9.77543 5.82629 10.1838 7.05132V7.05132C10.389 7.66712 10.389 8.33288 10.1838 8.94868V8.94868C9.77543 10.1737 8.62901 11 7.33772 11H3.5M3.5 5L5.5 3M3.5 5L5.5 7" stroke="red" stroke-linecap="round"/>
</svg>

<svg xmlns="http://www.w3.org/2000/svg" width="14" height="14" fill="none" viewBox="0 0 14 14"><path stroke="red" stroke-linecap="round" d="M3.5 5h3.838a3 3 0 0 1 2.846 2.051v0a3 3 0 0 1 0 1.898v0A3 3 0 0 1 7.338 11H3.5m0-6 2-2m-2 2 2 2"/></svg>
